.local/share/icons/Gruvbox-Plus-Dark/actions/16/vmware-vcenter.svg

<svg xmlns="http://www.w3.org/2000/svg" width="16" height="16" version="1.1">
 <defs>
  <style id="current-color-scheme" type="text/css">
   .ColorScheme-Text { color:#555555; } .ColorScheme-Highlight { color:#4285f4; } .ColorScheme-NeutralText { color:#ff9800; } .ColorScheme-PositiveText { color:#4caf50; } .ColorScheme-NegativeText { color:#f44336; }
  </style>
 </defs>
 <path style="fill:currentColor" class="ColorScheme-Text" d="M 6.6660156 0 C 5.205981 0 4 1.205981 4 2.6660156 L 4 4 L 2.6660156 4 C 1.205981 4 1.4802974e-15 5.205981 0 6.6660156 L 0 13.333984 C 0 14.794019 1.205981 16 2.6660156 16 L 9.3339844 16 C 10.794019 16 12 14.794019 12 13.333984 L 12 12 L 13.333984 12 C 14.794019 12 16 10.794019 16 9.3339844 L 16 2.6660156 C 16 1.205981 14.794019 1.4802974e-15 13.333984 0 L 6.6660156 0 z M 6 2 L 14 2 L 14 10 L 10 10 L 10 14 L 2 14 L 2 6 L 6 6 L 6 2 z M 7 3 L 7 7 L 3 7 L 3 13 L 9 13 L 9 9 L 13 9 L 13 3 L 7 3 z"/>
</svg>

<svg width="16" height="16" version="1.1" xmlns="http://www.w3.org/2000/svg">
  <defs>
    <style id="current-color-scheme" type="text/css">.ColorScheme-Text { color:#ebdbb2; } .ColorScheme-Highlight { color:#458588; }</style>
  </defs>
  <path class="ColorScheme-Text" d="m6.666 0c-1.46 0-2.666 1.206-2.666 2.666v1.334h-1.334c-1.46 0-2.666 1.206-2.666 2.666v6.668c0 1.46 1.206 2.666 2.666 2.666h6.668c1.46 0 2.666-1.206 2.666-2.666v-1.334h1.334c1.46 0 2.666-1.206 2.666-2.666v-6.668c0-1.46-1.206-2.666-2.666-2.666h-6.668zm-0.666 2h8v8h-4v4h-8v-8h4v-4zm1 1v4h-4v6h6v-4h4v-6h-6z" fill="currentColor"/>
</svg>
